build/communication/TelegramSolid.svg

<svg xmlns="http://www.w3.org/2000/svg" fill="none" viewBox="0 0 24 24" focusable="false"><path d="M0 0H24V24H0z"/><path fill="#74767B" fill-rule="evenodd" d="M4.23741 10.9617C9.06923 8.85655 12.2912 7.46871 13.9033 6.79817C18.5063 4.88365 19.4627 4.55108 20.0861 4.5401C20.2232 4.53768 20.5298 4.57166 20.7284 4.7328C20.8961 4.86886 20.9422 5.05266 20.9643 5.18166C20.9864 5.31066 21.0139 5.60452 20.992 5.83414C20.7426 8.45498 19.6633 14.815 19.1142 17.7504C18.8818 18.9925 18.4244 19.409 17.9815 19.4497C17.0189 19.5383 16.288 18.8136 15.3558 18.2025C13.897 17.2463 13.0729 16.651 11.6569 15.7179C10.0205 14.6395 11.0813 14.0468 12.0139 13.0782C12.258 12.8247 16.4988 8.96726 16.5809 8.61734C16.5912 8.57357 16.6007 8.41044 16.5038 8.3243C16.4069 8.23816 16.2639 8.26762 16.1606 8.29105C16.0143 8.32425 13.6839 9.86457 9.16938 12.912C8.5079 13.3662 7.90875 13.5875 7.37193 13.5759C6.78013 13.5632 5.64175 13.2413 4.79548 12.9662C3.75749 12.6288 2.93252 12.4504 3.00436 11.8774C3.04178 11.579 3.45279 11.2737 4.23741 10.9617Z"/></svg>

<svg xmlns="http://www.w3.org/2000/svg" fill="none" viewBox="0 0 24 24" focusable="false"><path fill="none" d="M0 0h24v24H0z"/><path fill="#74767B" fill-rule="evenodd" d="M4.23 10.96c4.83-2.11 8.06-3.5 9.67-4.17 4.6-1.91 5.56-2.24 6.18-2.25.14-.01.44.03.64.19.17.13.22.32.24.45s.05.42.03.65c-.25 2.62-1.33 8.98-1.88 11.92-.23 1.24-.69 1.65-1.13 1.69-.97.09-1.7-.63-2.63-1.24-1.46-.96-2.28-1.55-3.7-2.49-1.63-1.08-.57-1.67.36-2.64.24-.25 4.48-4.11 4.57-4.46.01-.04.02-.2-.08-.29s-.24-.06-.34-.03c-.15.03-2.48 1.57-7 4.62-.66.45-1.26.67-1.79.66-.59-.01-1.73-.33-2.58-.61-1.04-.34-1.86-.51-1.79-1.09.04-.3.45-.6 1.23-.91"/></svg>
